src/assets/images/forge.svg

<svg fill="none" height="143" viewBox="0 0 282 143" width="282" xmlns="http://www.w3.org/2000/svg"><path d="m254.78 18.036-120.988-6.1193h147.875v-11.9167h-167.08v25.1216 19.9685c0 .3221-4.801-29.3086-6.081-37.68244h-13.1234v21.90094 19.9684c0 .3221-5.7614-35.1058-6.0815-39.61484-33.2879 0-89.3011 0-89.3011 0 6.08144 5.15314 39.6894 34.13964 63.6951 46.05634 11.8428 5.7973 26.5663 6.1193 39.6889 6.4414 6.722.3221 13.444.6442 18.565 5.7973 7.362 7.0856 8.962 18.3581 2.56 26.732-6.081 8.3738-23.365 10.3068-23.365 10.3068l-14.7236 17.391v20.613h32.9676l.96-20.291 28.487-20.29c-2.88 2.576-9.922 9.018-19.844 24.799-2.241 3.543-4.161 7.408-5.442 11.273 7.042-6.119 21.765-10.306 39.049-10.306 16.964 0 31.688 4.187 38.73 10.306-1.281-3.865-3.201-7.73-5.442-11.273-10.242-15.781-16.964-22.223-19.844-24.799l28.486 20.29.961 20.291h30.727v-20.613l-14.404-17.714s-21.445-1.288-26.886-10.3059c-16.644-25.1216 6.082-64.4144 59.854-76.3311z" fill="#fff"/></svg>

<svg width="282" height="143" viewBox="0 0 282 143" fill="none" xmlns="http://www.w3.org/2000/svg">
<path d="M254.78 18.036L133.792 11.9167H281.667V0H114.587V25.1216V45.0901C114.587 45.4122 109.786 15.7815 108.506 7.40766H95.3826V29.3086V49.277C95.3826 49.5991 89.6212 14.1712 89.3011 9.66216C56.0132 9.66216 0 9.66216 0 9.66216C6.08144 14.8153 39.6894 43.8018 63.6951 55.7185C75.5379 61.5158 90.2614 61.8378 103.384 62.1599C110.106 62.482 116.828 62.8041 121.949 67.9572C129.311 75.0428 130.911 86.3153 124.509 94.6892C118.428 103.063 101.144 104.996 101.144 104.996L86.4204 122.387V143H119.388L120.348 122.709L148.835 102.419C145.955 104.995 138.913 111.437 128.991 127.218C126.75 130.761 124.83 134.626 123.549 138.491C130.591 132.372 145.314 128.185 162.598 128.185C179.562 128.185 194.286 132.372 201.328 138.491C200.047 134.626 198.127 130.761 195.886 127.218C185.644 111.437 178.922 104.995 176.042 102.419L204.528 122.709L205.489 143H236.216V122.387L221.812 104.673C221.812 104.673 200.367 103.385 194.926 94.3671C178.282 69.2455 201.008 29.9527 254.78 18.036Z" fill="white"/>
</svg>
